X: 1249
T: Berlin Schottische
B: australian traditional tunes wiki
M:4/4
L:1/8
R: Schottische
Q: 1/4=100
K:C
V:1 
|:"Am"A2A>EA2A2|"F"A>B (3cBA "C"G3E|"G7"F>A G>F "C"E>G F>E|1"G7"D>F E>D "C"C4:|2"G"D>F E>D "C"C2||
|:GG|"C"G2c2d2|e6|g2 eg eg|e4GG|"C"G2f2e2|"G"d4GG|G2e2d2|"C"c4:|
% abcbook-tune_id 6342d53aac3c907746935290


% abcbook-boost 0
% abcbook-tablature 
% abcbook-transpose 
% abcbook-lastupdated 1665324355938
% abcbook-soundfonts 
% abcbook-repeats 1
% NFF Book 2018

